src/svg/database.svg

<svg version="1.2" baseProfile="tiny" xmlns="http://www.w3.org/2000/svg" width="24" height="24" viewBox="0 0 24 24"><path d="M18.983 8.791c-.176-3.704-3.236-6.666-6.983-6.666s-6.807 2.962-6.983 6.666l-.017.084v6.25c0 3.86 3.141 7 7 7s7-3.14 7-7v-6.25l-.017-.084zm-6.983 8.834c-2.22 0-4.132-1.324-5-3.222v-.388c1.271 1.3 3.042 2.11 5 2.11s3.729-.811 5-2.11v.388c-.868 1.898-2.78 3.222-5 3.222zm0-13.5c2.757 0 5 2.243 5 5s-2.243 5-5 5-5-2.243-5-5 2.243-5 5-5zm0 16c-2.271 0-4.172-1.532-4.778-3.609 1.188 1.293 2.888 2.109 4.778 2.109s3.59-.816 4.778-2.109c-.606 2.077-2.507 3.609-4.778 3.609z"/></svg>

<?xml version="1.0" encoding="iso-8859-1"?>
<!-- Generator: Adobe Illustrator 16.2.1, SVG Export Plug-In . SVG Version: 6.00 Build 0)  -->
<svg version="1.2" baseProfile="tiny" xmlns="http://www.w3.org/2000/svg" xmlns:xlink="http://www.w3.org/1999/xlink" x="0px"
	 y="0px" width="24px" height="24px" viewBox="0 0 24 24" xml:space="preserve">
<g id="Layer_1">
	<path d="M18.983,8.791C18.807,5.087,15.747,2.125,12,2.125S5.193,5.087,5.017,8.791C5.015,8.82,5,8.845,5,8.875v6.25
		c0,3.86,3.141,7,7,7s7-3.14,7-7v-6.25C19,8.845,18.985,8.82,18.983,8.791z M12,17.625c-2.22,0-4.132-1.324-5-3.222v-0.388
		c1.271,1.3,3.042,2.11,5,2.11s3.729-0.811,5-2.11v0.388C16.132,16.301,14.22,17.625,12,17.625z M12,4.125c2.757,0,5,2.243,5,5
		s-2.243,5-5,5s-5-2.243-5-5S9.243,4.125,12,4.125z M12,20.125c-2.271,0-4.172-1.532-4.778-3.609
		c1.188,1.293,2.888,2.109,4.778,2.109s3.59-0.816,4.778-2.109C16.172,18.593,14.271,20.125,12,20.125z"/>
</g>
<g id="nyt_x5F_exporter_x5F_info" display="none">
</g>
</svg>
